img/sprite/gradient/card-lamp.svg

<svg width="48" height="48" viewBox="0 0 48 48" fill="none" xmlns="http://www.w3.org/2000/svg">
<mask id="mask0_84_3487" style="mask-type:luminance" maskUnits="userSpaceOnUse" x="0" y="0" width="48" height="48">
<path d="M0 3.8147e-06H48V48H0V3.8147e-06Z" fill="white"/>
</mask>
<g mask="url(#mask0_84_3487)">
<path fill-rule="evenodd" clip-rule="evenodd" d="M18.9622 39.6514C17.9334 39.6514 17.0991 38.8184 17.0976 37.7899L17.0976 37.7869L17.0881 36.0904C17.0881 36.0899 17.0881 36.0894 17.0881 36.0888C17.0837 33.3204 16.0654 30.6235 14.1583 28.5937L14.1583 28.5937C11.9135 26.2047 10.5299 23.0003 10.4993 19.4716C10.4354 12.0815 16.4179 5.95638 23.8074 5.85349C27.746 5.79868 31.3029 7.4292 33.8053 10.0718C34.0723 10.3538 34.5173 10.3659 34.7993 10.0989C35.0813 9.83191 35.0934 9.38688 34.8264 9.10492C32.0651 6.18892 28.1357 4.38688 23.7879 4.44738C15.6239 4.56105 9.02253 11.3208 9.09309 19.4838C9.12684 23.3798 10.6561 26.9201 13.1334 29.5566C14.785 31.3145 15.6783 33.6636 15.6818 36.0924L15.6818 36.0954L15.6914 37.7919C15.6914 37.7924 15.6914 37.793 15.6914 37.7935C15.6948 39.5974 17.1583 41.0577 18.9623 41.0576L29.0619 41.0568C30.8699 41.0567 32.3348 39.5897 32.3323 37.7817L32.3323 37.7788L32.3226 36.0169C32.3226 36.0163 32.3226 36.0158 32.3226 36.0152C32.3195 33.6292 33.1964 31.32 34.8247 29.6011L34.3497 29.1511L34.8247 29.6011C37.3546 26.9303 38.9076 23.3221 38.9076 19.3523C38.9076 16.4707 38.089 13.7781 36.6717 11.4966C36.4667 11.1667 36.0332 11.0654 35.7034 11.2704C35.3735 11.4753 35.2722 11.9088 35.4771 12.2387C36.7602 14.3039 37.5014 16.7406 37.5014 19.3523C37.5014 22.9481 36.0962 26.2139 33.8038 28.634C31.9148 30.6281 30.9124 33.2903 30.9164 36.0189L30.9164 36.0217L30.926 37.7836C30.926 37.784 30.926 37.7844 30.926 37.7848C30.9268 38.8148 30.0921 39.6505 29.0618 39.6505L18.9622 39.6514Z" fill="url(#paint0_linear_84_3487)"/>
<path fill-rule="evenodd" clip-rule="evenodd" d="M21.4218 48C19.6841 48.0002 18.2774 46.5876 18.2849 44.85L21.4218 48ZM21.4218 48L26.5663 47.9994C26.5663 47.9994 26.5663 47.9994 26.5663 47.9994C28.293 47.9993 29.6951 46.6035 29.7026 44.8768L29.7222 40.3571C29.7231 40.1701 29.6493 39.9904 29.5174 39.8579C29.3854 39.7254 29.2061 39.6509 29.019 39.6509L19.0077 39.6519C18.6206 39.652 18.3063 39.9649 18.3046 40.352L18.2849 44.85M19.6912 44.856C19.6912 44.856 19.6912 44.856 19.6912 44.856L19.7078 41.0581L28.3129 41.0572L28.2963 44.8707C28.2922 45.8231 27.5188 46.5931 26.5662 46.5932L21.4216 46.5938C20.4631 46.5939 19.6871 45.8146 19.6912 44.856Z" fill="url(#paint1_linear_84_3487)"/>
<path fill-rule="evenodd" clip-rule="evenodd" d="M20.1928 23.7727C20.2152 24.144 20.5228 24.4336 20.8947 24.4336H27.0981C27.4486 24.4336 27.7455 24.1756 27.7944 23.8286C27.8678 23.3077 28.0249 22.5984 28.3806 21.8192L28.3806 21.8192C28.7538 21.0017 29.2164 20.3898 29.5945 19.9696L29.5947 19.9693C29.8944 19.636 29.9574 19.1483 29.7426 18.7481M21.1061 21.4819C21.3302 22.0451 21.4562 22.5726 21.5261 23.0273L21.1061 21.4819ZM21.5261 23.0273H26.509C26.6206 22.5048 26.802 21.8909 27.1013 21.2353C27.4964 20.3697 27.9753 19.6978 28.3926 19.2078C27.8413 18.1935 27.2067 17.1225 26.4763 16.0168L26.4763 16.0168C25.6459 14.7597 24.806 13.631 23.9918 12.6261C23.1593 13.6382 22.2967 14.7884 21.4474 16.0827C20.7444 17.1543 20.1378 18.1917 19.6142 19.1723C20.0959 19.6736 20.6892 20.4344 21.106 21.4818M19.4983 19.3911C19.4983 19.3911 19.4983 19.391 19.4983 19.391L19.4983 19.3911ZM28.549 19.0292C28.5489 19.0293 28.5488 19.0293 28.5487 19.0294C28.5488 19.0293 28.5489 19.0293 28.549 19.0292ZM28.5035 19.413C28.5035 19.4131 28.5035 19.4131 28.5035 19.4131L28.5035 19.413ZM20.1928 23.7727C20.1656 23.3195 20.0748 22.6936 19.7995 22.0019L20.1928 23.7727ZM19.7995 22.0019L19.7995 22.0018L19.7995 22.0019ZM19.7995 22.0018C19.4226 21.0549 18.8638 20.3972 18.4535 19.9992L19.7995 22.0018ZM18.4533 19.999C18.1085 19.6647 18.0366 19.1492 18.2537 18.7365L18.4533 19.999ZM29.7426 18.748C29.1472 17.6385 28.4549 16.4606 27.6496 15.2417C26.7662 13.9043 25.8724 12.7078 25.0081 11.6468M18.2538 18.7363C18.8226 17.6549 19.4895 16.5036 20.2716 15.3114L18.2538 18.7363ZM22.9831 11.639C22.0975 12.7093 21.1773 13.931 20.2717 15.3113L20.2716 15.3114M25.0081 11.6468C24.4863 11.0062 23.5098 11.0028 22.9833 11.6388L22.9831 11.639" fill="url(#paint2_linear_84_3487)"/>
<path fill-rule="evenodd" clip-rule="evenodd" d="M20.1952 26.5713C20.1952 26.9596 20.51 27.2744 20.8983 27.2744H27.1018C27.4901 27.2744 27.8049 26.9596 27.8049 26.5713V23.7306C27.8049 23.3422 27.4901 23.0274 27.1018 23.0274H20.8983C20.51 23.0274 20.1952 23.3422 20.1952 23.7306V26.5713ZM21.6014 25.8682V24.4337H26.3986V25.8682H21.6014Z" fill="url(#paint3_linear_84_3487)"/>
<path fill-rule="evenodd" clip-rule="evenodd" d="M27.8653 41.0566C28.2536 41.0566 28.5684 40.7418 28.5684 40.3535V27.3251C28.5684 26.5194 27.9145 25.869 27.1114 25.869H20.8887C20.0856 25.869 19.4316 26.5194 19.4316 27.3251V37.3163C19.4316 37.7046 19.7464 38.0194 20.1348 38.0194C20.5231 38.0194 20.8379 37.7046 20.8379 37.3163V27.3251C20.8379 27.2986 20.8597 27.2753 20.8887 27.2753H27.1114C27.1404 27.2753 27.1622 27.2986 27.1622 27.3251V40.3535C27.1622 40.7418 27.477 41.0566 27.8653 41.0566Z" fill="url(#paint4_linear_84_3487)"/>
<path fill-rule="evenodd" clip-rule="evenodd" d="M24 20.248C24.3883 20.248 24.7031 19.9332 24.7031 19.5449V11.868C24.7031 11.4797 24.3883 11.1649 24 11.1649C23.6117 11.1649 23.2969 11.4797 23.2969 11.868V19.5449C23.2969 19.9332 23.6117 20.248 24 20.248Z" fill="url(#paint5_linear_84_3487)"/>
<path fill-rule="evenodd" clip-rule="evenodd" d="M19.4321 29.8281C19.4321 30.2165 19.7469 30.5312 20.1353 30.5312H27.8648C28.2532 30.5312 28.568 30.2165 28.568 29.8281C28.568 29.4398 28.2532 29.125 27.8648 29.125H20.1353C19.7469 29.125 19.4321 29.4398 19.4321 29.8281Z" fill="url(#paint6_linear_84_3487)"/>
<path fill-rule="evenodd" clip-rule="evenodd" d="M23.9935 2.70703C24.3819 2.70703 24.6967 2.39223 24.6967 2.00391V0.703594C24.6967 0.315269 24.3819 0.000468731 23.9935 0.000468731C23.6052 0.000468731 23.2904 0.315269 23.2904 0.703594V2.00391C23.2904 2.39223 23.6052 2.70703 23.9935 2.70703Z" fill="url(#paint7_linear_84_3487)"/>
<path fill-rule="evenodd" clip-rule="evenodd" d="M40.5065 19.7656C40.5065 20.154 40.8213 20.4688 41.2096 20.4688H42.4694C42.8577 20.4688 43.1725 20.154 43.1725 19.7656C43.1725 19.3773 42.8577 19.0625 42.4694 19.0625H41.2096C40.8213 19.0625 40.5065 19.3773 40.5065 19.7656Z" fill="url(#paint8_linear_84_3487)"/>
<path fill-rule="evenodd" clip-rule="evenodd" d="M4.82739 19.7656C4.82739 20.154 5.14219 20.4688 5.53052 20.4688H6.79033C7.17866 20.4688 7.49345 20.154 7.49345 19.7656C7.49345 19.3773 7.17866 19.0625 6.79033 19.0625H5.53052C5.14219 19.0625 4.82739 19.3773 4.82739 19.7656Z" fill="url(#paint9_linear_84_3487)"/>
<path fill-rule="evenodd" clip-rule="evenodd" d="M35.6797 7.71103C35.9586 7.98125 36.4037 7.97421 36.6739 7.69533L37.5648 6.77583C37.835 6.49694 37.828 6.0518 37.5491 5.78158C37.2702 5.51136 36.8251 5.51839 36.5549 5.79728L35.664 6.71678C35.3938 6.99567 35.4008 7.44081 35.6797 7.71103Z" fill="url(#paint10_linear_84_3487)"/>
<path fill-rule="evenodd" clip-rule="evenodd" d="M10.4508 33.7491C10.7297 34.0193 11.1748 34.0123 11.445 33.7334L12.3359 32.8139C12.6062 32.535 12.5991 32.0899 12.3202 31.8197C12.0414 31.5494 11.5962 31.5565 11.326 31.8354L10.4351 32.7549C10.1649 33.0338 10.1719 33.4789 10.4508 33.7491Z" fill="url(#paint11_linear_84_3487)"/>
<path fill-rule="evenodd" clip-rule="evenodd" d="M37.5491 33.7491C37.828 33.4789 37.835 33.0338 37.5648 32.7549L36.6739 31.8354C36.4037 31.5565 35.9586 31.5494 35.6797 31.8197C35.4008 32.0899 35.3938 32.535 35.664 32.8139L36.5549 33.7334C36.8251 34.0123 37.2702 34.0193 37.5491 33.7491Z" fill="url(#paint12_linear_84_3487)"/>
<path fill-rule="evenodd" clip-rule="evenodd" d="M12.3202 7.71103C12.5991 7.44081 12.6062 6.99567 12.3359 6.71678L11.445 5.79728C11.1748 5.51839 10.7297 5.51136 10.4508 5.78158C10.1719 6.0518 10.1649 6.49694 10.4351 6.77583L11.326 7.69533C11.5962 7.97421 12.0414 7.98125 12.3202 7.71103Z" fill="url(#paint13_linear_84_3487)"/>
<path fill-rule="evenodd" clip-rule="evenodd" d="M18.285 43.5918C18.285 43.9801 18.5998 44.2949 18.9882 44.2949H26.2887C26.677 44.2949 26.9918 43.9801 26.9918 43.5918C26.9918 43.2035 26.677 42.8887 26.2887 42.8887H18.9882C18.5998 42.8887 18.285 43.2035 18.285 43.5918Z" fill="url(#paint14_linear_84_3487)"/>
</g>
<defs>
<linearGradient id="paint0_linear_84_3487" x1="9.09253" y1="22.7518" x2="38.9076" y2="22.7518" gradientUnits="userSpaceOnUse">
<stop offset="0" stop-color="#0CBAF1"/>
<stop offset="1" stop-color="#E95CE9"/>
</linearGradient>
<linearGradient id="paint1_linear_84_3487" x1="18.2849" y1="43.8255" x2="29.7222" y2="43.8255" gradientUnits="userSpaceOnUse">
<stop offset="0" stop-color="#0CBAF1"/>
<stop offset="1" stop-color="#E95CE9"/>
</linearGradient>
<linearGradient id="paint2_linear_84_3487" x1="18.1305" y1="17.7988" x2="29.8696" y2="17.7988" gradientUnits="userSpaceOnUse">
<stop offset="0" stop-color="#0CBAF1"/>
<stop offset="1" stop-color="#E95CE9"/>
</linearGradient>
<linearGradient id="paint3_linear_84_3487" x1="20.1952" y1="25.1509" x2="27.8049" y2="25.1509" gradientUnits="userSpaceOnUse">
<stop offset="0" stop-color="#0CBAF1"/>
<stop offset="1" stop-color="#E95CE9"/>
</linearGradient>
<linearGradient id="paint4_linear_84_3487" x1="19.4316" y1="33.4628" x2="28.5684" y2="33.4628" gradientUnits="userSpaceOnUse">
<stop offset="0" stop-color="#0CBAF1"/>
<stop offset="1" stop-color="#E95CE9"/>
</linearGradient>
<linearGradient id="paint5_linear_84_3487" x1="23.2969" y1="15.7065" x2="24.7031" y2="15.7065" gradientUnits="userSpaceOnUse">
<stop offset="0" stop-color="#0CBAF1"/>
<stop offset="1" stop-color="#E95CE9"/>
</linearGradient>
<linearGradient id="paint6_linear_84_3487" x1="19.4321" y1="29.8281" x2="28.568" y2="29.8281" gradientUnits="userSpaceOnUse">
<stop offset="0" stop-color="#0CBAF1"/>
<stop offset="1" stop-color="#E95CE9"/>
</linearGradient>
<linearGradient id="paint7_linear_84_3487" x1="23.2904" y1="1.35375" x2="24.6967" y2="1.35375" gradientUnits="userSpaceOnUse">
<stop offset="0" stop-color="#0CBAF1"/>
<stop offset="1" stop-color="#E95CE9"/>
</linearGradient>
<linearGradient id="paint8_linear_84_3487" x1="40.5065" y1="19.7656" x2="43.1725" y2="19.7656" gradientUnits="userSpaceOnUse">
<stop offset="0" stop-color="#0CBAF1"/>
<stop offset="1" stop-color="#E95CE9"/>
</linearGradient>
<linearGradient id="paint9_linear_84_3487" x1="4.82739" y1="19.7656" x2="7.49345" y2="19.7656" gradientUnits="userSpaceOnUse">
<stop offset="0" stop-color="#0CBAF1"/>
<stop offset="1" stop-color="#E95CE9"/>
</linearGradient>
<linearGradient id="paint10_linear_84_3487" x1="35.4658" y1="6.7463" x2="37.763" y2="6.7463" gradientUnits="userSpaceOnUse">
<stop offset="0" stop-color="#0CBAF1"/>
<stop offset="1" stop-color="#E95CE9"/>
</linearGradient>
<linearGradient id="paint11_linear_84_3487" x1="10.2369" y1="32.7844" x2="12.5341" y2="32.7844" gradientUnits="userSpaceOnUse">
<stop offset="0" stop-color="#0CBAF1"/>
<stop offset="1" stop-color="#E95CE9"/>
</linearGradient>
<linearGradient id="paint12_linear_84_3487" x1="35.4658" y1="32.7844" x2="37.763" y2="32.7844" gradientUnits="userSpaceOnUse">
<stop offset="0" stop-color="#0CBAF1"/>
<stop offset="1" stop-color="#E95CE9"/>
</linearGradient>
<linearGradient id="paint13_linear_84_3487" x1="10.2369" y1="6.7463" x2="12.5341" y2="6.7463" gradientUnits="userSpaceOnUse">
<stop offset="0" stop-color="#0CBAF1"/>
<stop offset="1" stop-color="#E95CE9"/>
</linearGradient>
<linearGradient id="paint14_linear_84_3487" x1="18.285" y1="43.5918" x2="26.9918" y2="43.5918" gradientUnits="userSpaceOnUse">
<stop offset="0" stop-color="#0CBAF1"/>
<stop offset="1" stop-color="#E95CE9"/>
</linearGradient>
</defs>
</svg>

<svg width="48" height="48" fill="none" xmlns="http://www.w3.org/2000/svg"><mask id="a" style="mask-type:luminance" maskUnits="userSpaceOnUse" x="0" y="0" width="48" height="48"><path d="M0 0h48v48H0V0Z" fill="#fff"/></mask><g mask="url(#a)" fill-rule="evenodd" clip-rule="evenodd"><path d="M18.962 39.651a1.864 1.864 0 0 1-1.864-1.861v-.003l-.01-1.697v-.001c-.004-2.769-1.023-5.465-2.93-7.495a13.449 13.449 0 0 1-3.659-9.122c-.064-7.39 5.919-13.516 13.308-13.619a13.463 13.463 0 0 1 9.998 4.219.703.703 0 1 0 1.021-.967 14.869 14.869 0 0 0-11.038-4.658c-8.164.114-14.765 6.874-14.695 15.037a14.855 14.855 0 0 0 4.04 10.073c1.652 1.758 2.545 4.107 2.549 6.535v.003l.01 1.697v.002a3.27 3.27 0 0 0 3.27 3.264l10.1-.001a3.27 3.27 0 0 0 3.27-3.275v-.003l-.01-1.762v-.002c-.003-2.386.874-4.695 2.503-6.414l-.475-.45.475.45a14.857 14.857 0 0 0 4.083-10.249 14.84 14.84 0 0 0-2.236-7.855.703.703 0 1 0-1.195.742 13.433 13.433 0 0 1 2.024 7.113 13.45 13.45 0 0 1-3.697 9.282c-1.89 1.994-2.892 4.656-2.888 7.385v.003l.01 1.762c0 1.03-.834 1.867-1.864 1.867h-10.1Z" fill="url(#b)"/><path d="M21.422 48a3.137 3.137 0 0 1-3.137-3.15L21.422 48Zm0 0h5.144a3.136 3.136 0 0 0 3.137-3.123l.02-4.52a.703.703 0 0 0-.704-.706H19.008a.703.703 0 0 0-.703.701l-.02 4.498m1.406.006.017-3.798h8.605l-.017 3.813a1.73 1.73 0 0 1-1.73 1.722h-5.144a1.73 1.73 0 0 1-1.73-1.737Z" fill="url(#c)"/><path d="M20.193 23.773c.022.371.33.66.702.66h6.203c.35 0 .648-.257.696-.604a7.297 7.297 0 0 1 1.8-3.859c.3-.334.363-.822.149-1.222m-8.637 2.734c.224.563.35 1.09.42 1.545l-.42-1.545Zm.42 1.545h4.983a8.68 8.68 0 0 1 1.884-3.82 43.272 43.272 0 0 0-4.4-6.582 39.897 39.897 0 0 0-4.379 6.547 7.154 7.154 0 0 1 1.492 2.31m-1.608-2.09v-.001Zm9.051-.363Zm-.046.384Zm-8.31 4.36a5.714 5.714 0 0 0-.394-1.771l.394 1.77Zm-.394-1.771Zm0 0a5.77 5.77 0 0 0-1.346-2.003l1.346 2.003Zm-1.346-2.003a1.066 1.066 0 0 1-.2-1.262l.2 1.262Zm11.29-1.251a44.73 44.73 0 0 0-4.735-7.101m-6.754 7.09a41.263 41.263 0 0 1 2.018-3.426l-2.018 3.425Zm4.73-7.098a41.289 41.289 0 0 0-2.712 3.672m4.736-3.664a1.31 1.31 0 0 0-2.025-.008" fill="url(#d)"/><path d="M20.195 26.571c0 .389.315.703.703.703h6.204a.703.703 0 0 0 .703-.703v-2.84a.703.703 0 0 0-.703-.704h-6.204a.703.703 0 0 0-.703.704v2.84Zm1.406-.703v-1.434H26.4v1.434H21.6Z" fill="url(#e)"/><path d="M27.865 41.057a.703.703 0 0 0 .703-.704V27.325c0-.806-.654-1.456-1.457-1.456H20.89c-.803 0-1.457.65-1.457 1.456v9.991a.703.703 0 0 0 1.406 0v-9.99a.05.05 0 0 1 .05-.05h6.223a.05.05 0 0 1 .051.05v13.027c0 .389.315.704.703.704Z" fill="url(#f)"/><path d="M24 20.248a.703.703 0 0 0 .703-.703v-7.677a.703.703 0 0 0-1.406 0v7.677c0 .388.315.703.703.703Z" fill="url(#g)"/><path d="M19.432 29.828c0 .389.315.703.703.703h7.73a.703.703 0 1 0 0-1.406h-7.73a.703.703 0 0 0-.703.703Z" fill="url(#h)"/><path d="M23.994 2.707a.703.703 0 0 0 .703-.703v-1.3a.703.703 0 0 0-1.407 0v1.3c0 .388.315.703.704.703Z" fill="url(#i)"/><path d="M40.507 19.766c0 .388.314.703.703.703h1.26a.703.703 0 0 0 0-1.407h-1.26a.703.703 0 0 0-.703.704Z" fill="url(#j)"/><path d="M4.827 19.766c0 .388.315.703.704.703h1.26a.703.703 0 0 0 0-1.407H5.53a.703.703 0 0 0-.704.704Z" fill="url(#k)"/><path d="M35.68 7.711c.279.27.724.263.994-.016l.89-.92a.703.703 0 0 0-1.01-.978l-.89.92a.703.703 0 0 0 .016.994Z" fill="url(#l)"/><path d="M10.45 33.75c.28.27.725.262.995-.017l.89-.92a.703.703 0 1 0-1.009-.978l-.89.92a.703.703 0 0 0 .015.994Z" fill="url(#m)"/><path d="M37.55 33.75a.703.703 0 0 0 .015-.995l-.891-.92a.703.703 0 1 0-1.01.979l.89.92c.271.278.716.285.995.015Z" fill="url(#n)"/><path d="M12.32 7.711a.703.703 0 0 0 .016-.994l-.891-.92a.703.703 0 1 0-1.01.979l.891.92c.27.278.715.285.994.015Z" fill="url(#o)"/><path d="M18.285 43.592c0 .388.315.703.703.703h7.3a.703.703 0 0 0 0-1.406h-7.3a.703.703 0 0 0-.703.703Z" fill="url(#p)"/></g><defs><linearGradient id="b" x1="9.093" y1="22.752" x2="38.908" y2="22.752" gradientUnits="userSpaceOnUse"><stop offset="0" stop-color="#0CBAF1"/><stop offset="1" stop-color="#E95CE9"/></linearGradient><linearGradient id="c" x1="18.285" y1="43.825" x2="29.722" y2="43.825" gradientUnits="userSpaceOnUse"><stop offset="0" stop-color="#0CBAF1"/><stop offset="1" stop-color="#E95CE9"/></linearGradient><linearGradient id="d" x1="18.131" y1="17.799" x2="29.87" y2="17.799" gradientUnits="userSpaceOnUse"><stop offset="0" stop-color="#0CBAF1"/><stop offset="1" stop-color="#E95CE9"/></linearGradient><linearGradient id="e" x1="20.195" y1="25.151" x2="27.805" y2="25.151" gradientUnits="userSpaceOnUse"><stop offset="0" stop-color="#0CBAF1"/><stop offset="1" stop-color="#E95CE9"/></linearGradient><linearGradient id="f" x1="19.432" y1="33.463" x2="28.568" y2="33.463" gradientUnits="userSpaceOnUse"><stop offset="0" stop-color="#0CBAF1"/><stop offset="1" stop-color="#E95CE9"/></linearGradient><linearGradient id="g" x1="23.297" y1="15.707" x2="24.703" y2="15.707" gradientUnits="userSpaceOnUse"><stop offset="0" stop-color="#0CBAF1"/><stop offset="1" stop-color="#E95CE9"/></linearGradient><linearGradient id="h" x1="19.432" y1="29.828" x2="28.568" y2="29.828" gradientUnits="userSpaceOnUse"><stop offset="0" stop-color="#0CBAF1"/><stop offset="1" stop-color="#E95CE9"/></linearGradient><linearGradient id="i" x1="23.29" y1="1.354" x2="24.697" y2="1.354" gradientUnits="userSpaceOnUse"><stop offset="0" stop-color="#0CBAF1"/><stop offset="1" stop-color="#E95CE9"/></linearGradient><linearGradient id="j" x1="40.507" y1="19.766" x2="43.172" y2="19.766" gradientUnits="userSpaceOnUse"><stop offset="0" stop-color="#0CBAF1"/><stop offset="1" stop-color="#E95CE9"/></linearGradient><linearGradient id="k" x1="4.827" y1="19.766" x2="7.493" y2="19.766" gradientUnits="userSpaceOnUse"><stop offset="0" stop-color="#0CBAF1"/><stop offset="1" stop-color="#E95CE9"/></linearGradient><linearGradient id="l" x1="35.466" y1="6.746" x2="37.763" y2="6.746" gradientUnits="userSpaceOnUse"><stop offset="0" stop-color="#0CBAF1"/><stop offset="1" stop-color="#E95CE9"/></linearGradient><linearGradient id="m" x1="10.237" y1="32.784" x2="12.534" y2="32.784" gradientUnits="userSpaceOnUse"><stop offset="0" stop-color="#0CBAF1"/><stop offset="1" stop-color="#E95CE9"/></linearGradient><linearGradient id="n" x1="35.466" y1="32.784" x2="37.763" y2="32.784" gradientUnits="userSpaceOnUse"><stop offset="0" stop-color="#0CBAF1"/><stop offset="1" stop-color="#E95CE9"/></linearGradient><linearGradient id="o" x1="10.237" y1="6.746" x2="12.534" y2="6.746" gradientUnits="userSpaceOnUse"><stop offset="0" stop-color="#0CBAF1"/><stop offset="1" stop-color="#E95CE9"/></linearGradient><linearGradient id="p" x1="18.285" y1="43.592" x2="26.992" y2="43.592" gradientUnits="userSpaceOnUse"><stop offset="0" stop-color="#0CBAF1"/><stop offset="1" stop-color="#E95CE9"/></linearGradient></defs></svg>
